Obsidian-Light/status/scalable/media-playlist-shuffle-symbolic.svg

<svg height="16" width="16" xmlns="http://www.w3.org/2000/svg"><path d="m11 2v2h-1.03125c-3.5740274 0-4.1377224 2.5060606-6.25 4.3125-.5104229.4365184-.9879198.6875-1.75.6875h-.96875v2h.96875c1.2565102 0 2.2996473-.504704 3.0625-1.1875 1.7927728-1.6046313 2.5712417-3.8125 4.9375-3.8125h1.03125v2l4-3zm0 6v2h-1.03125c-1.1237797 0-1.8762367-.5239077-2.5625-1.21875-.3830661.4640984-.8197014.9505764-1.34375 1.46875.9018279.980124 1.9442358 1.75 3.90625 1.75h1.03125v2l4-3zm-10-3v2h.96875c.5138798 0 .8975677.1355749 1.25.34375.4809699-.4471515.8979042-.9659279 1.34375-1.5-.7039502-.4926705-1.5709507-.84375-2.59375-.84375z" fill="#bebebe"/></svg>

<?xml version="1.0" encoding="UTF-8" standalone="no"?>
<!-- Created with Inkscape (http://www.inkscape.org/) -->

<svg
   xmlns:dc="http://purl.org/dc/elements/1.1/"
   xmlns:cc="http://creativecommons.org/ns#"
   xmlns:rdf="http://www.w3.org/1999/02/22-rdf-syntax-ns#"
   xmlns:svg="http://www.w3.org/2000/svg"
   xmlns="http://www.w3.org/2000/svg"
   xmlns:sodipodi="http://sodipodi.sourceforge.net/DTD/sodipodi-0.dtd"
   xmlns:inkscape="http://www.inkscape.org/namespaces/inkscape"
   width="16"
   height="16"
   id="svg2"
   sodipodi:version="0.32"
   inkscape:version="0.48.1 r9760"
   version="1.0"
   sodipodi:docname="media-playlist-shuffle-symbolic.svg"
   inkscape:output_extension="org.inkscape.output.svg.inkscape">
  <defs
     id="defs4" />
  <sodipodi:namedview
     id="base"
     pagecolor="#ffffff"
     bordercolor="#e7e7e7"
     borderopacity="1"
     inkscape:pageopacity="0.0"
     inkscape:pageshadow="2"
     inkscape:zoom="24.711919"
     inkscape:cx="-8.3377926"
     inkscape:cy="6.3085737"
     inkscape:document-units="px"
     inkscape:current-layer="layer1"
     showgrid="true"
     inkscape:showpageshadow="false"
     showguides="true"
     inkscape:guide-bbox="true"
     inkscape:window-width="1920"
     inkscape:window-height="1022"
     inkscape:window-x="0"
     inkscape:window-y="25"
     inkscape:window-maximized="1"
     inkscape:snap-global="true">
    <sodipodi:guide
       orientation="1,0"
       position="0,112"
       id="guide2383" />
    <sodipodi:guide
       orientation="0,1"
       position="78.156291,0"
       id="guide2389" />
    <inkscape:grid
       type="xygrid"
       id="grid3672"
       visible="true"
       enabled="true" />
    <sodipodi:guide
       orientation="1,0"
       position="22.008699,4.1542523"
       id="guide2950" />
    <sodipodi:guide
       orientation="0,1"
       position="11.22532,22.008699"
       id="guide2952" />
  </sodipodi:namedview>
  <metadata
     id="metadata7">
    <rdf:RDF>
      <cc:Work
         rdf:about="">
        <dc:format>image/svg+xml</dc:format>
        <dc:type
           rdf:resource="http://purl.org/dc/dcmitype/StillImage" />
        <dc:title></dc:title>
      </cc:Work>
    </rdf:RDF>
  </metadata>
  <g
     inkscape:label="Calque 1"
     inkscape:groupmode="layer"
     id="layer1">
    <path
       style="fill:#bebebe;fill-opacity:1;fill-rule:nonzero;stroke:none"
       d="M 11 2 L 11 4 L 9.96875 4 C 6.3947226 4 5.8310276 6.5060606 3.71875 8.3125 C 3.2083271 8.7490184 2.7308302 9 1.96875 9 L 1 9 L 1 11 L 1.96875 11 C 3.2252602 11 4.2683973 10.495296 5.03125 9.8125 C 6.8240228 8.2078687 7.6024917 6 9.96875 6 L 11 6 L 11 8 L 15 5 L 11 2 z M 11 8 L 11 10 L 9.96875 10 C 8.8449703 10 8.0925133 9.4760923 7.40625 8.78125 C 7.0231839 9.2453484 6.5865486 9.7318264 6.0625 10.25 C 6.9643279 11.230124 8.0067358 12 9.96875 12 L 11 12 L 11 14 L 15 11 L 11 8 z M 1 5 L 1 7 L 1.96875 7 C 2.4826298 7 2.8663177 7.1355749 3.21875 7.34375 C 3.6997199 6.8965985 4.1166542 6.3778221 4.5625 5.84375 C 3.8585498 5.3510795 2.9915493 5 1.96875 5 L 1 5 z "
       id="path3042" />
  </g>
</svg>
